svgs/clash_of_clans.svg

<svg width="192" height="192" viewBox="0 0 192 192" fill="none" xmlns="http://www.w3.org/2000/svg"><path fill-rule="evenodd" clip-rule="evenodd" d="M44.026 43.625c.36 25.294 4.515 45.343 11.952 60.912l33.78-33.78a6 6 0 0 1 8.485 8.486l-36.105 36.105c4.348 6.439 9.478 11.966 15.396 16.632l38.223-38.223a6.001 6.001 0 0 1 8.486 8.486L87.736 138.75c4.99 2.769 10.41 5.085 16.264 6.966 19.384-6.228 34.017-17.222 43.992-33.698 9.959-16.449 15.559-38.835 15.982-68.375C143.1 33.126 123.335 28 103.812 28c-19.515 0-39.156 5.122-59.786 15.625Zm34.931 103.903c7.052 4.266 14.836 7.654 23.307 10.215a5.986 5.986 0 0 0 3.472 0c22.752-6.878 40.543-19.726 52.522-39.511C170.144 98.6 176 72.649 176 40a6 6 0 0 0-3.201-5.307C149.368 22.333 126.662 16 103.812 16c-22.852 0-45.44 6.335-68.636 18.706A6 6 0 0 0 32 40c0 30.075 4.97 54.467 15.044 73.471L31.514 129H22a6 6 0 1 0 0 12h6v6a6 6 0 1 0 12 0v-9.515l13.516-13.515c4.5 6.305 9.672 11.808 15.482 16.547L57.515 152H48a6 6 0 1 0 0 12h6v6a6 6 0 1 0 12 0v-9.515l12.957-12.957Z" fill="#000"/></svg>

<?xml version="1.0" encoding="UTF-8" standalone="no"?><svg xmlns:android="http://schemas.android.com/apk/res/android" height="192" width="192" xmlns="http://www.w3.org/2000/svg">
  <path d="M44.026,43.625C44.386,68.919 48.541,88.968 55.978,104.537L89.757,70.757C92.101,68.414 95.899,68.414 98.243,70.757C100.586,73.101 100.586,76.899 98.243,79.243L62.138,115.348C66.486,121.787 71.616,127.314 77.534,131.98L115.757,93.757C118.101,91.414 121.899,91.414 124.243,93.757C126.586,96.101 126.586,99.899 124.243,102.243L87.736,138.75C92.726,141.519 98.146,143.835 104,145.716C123.384,139.488 138.017,128.494 147.992,112.018C157.951,95.569 163.551,73.184 163.974,43.643C143.1,33.126 123.335,28 103.812,28C84.297,28 64.656,33.122 44.026,43.625ZM78.957,147.528C86.009,151.794 93.793,155.182 102.264,157.743C103.396,158.086 104.604,158.086 105.736,157.743C128.488,150.865 146.279,138.017 158.258,118.232C170.144,98.6 176,72.649 176,40C176,37.774 174.768,35.731 172.799,34.693C149.368,22.333 126.662,16 103.812,16C80.96,16 58.371,22.335 35.176,34.706C33.221,35.749 32,37.784 32,40C32,70.075 36.969,94.467 47.043,113.471L31.515,129H22C18.686,129 16,131.686 16,135C16,138.314 18.686,141 22,141H28V147C28,150.314 30.686,153 34,153C37.314,153 40,150.314 40,147V137.485L53.516,123.97C58.016,130.275 63.188,135.778 68.998,140.517L57.515,152H48C44.686,152 42,154.686 42,158C42,161.314 44.686,164 48,164H54V170C54,173.314 56.686,176 60,176C63.314,176 66,173.314 66,170V160.485L78.957,147.528Z" fill="#000000" fill-rule="evenOdd"/>
</svg>
